!!!OTL: Seele und Leib (2-20) S. 65
!!!id: P0893
**kern
*clefG2
*k[b-]
*F:
{4a
=1
4a
4a
4cc
=2
2b-
8g
8a
=3
4b-
8a
8g
8f
8a
=4
2g}
4r
=5
{4f
4e
4g
=6
4.cc
8dd
8cc
8b-
=7
2a
4g
=8
2f}
4r
=9
{4a
4a
8a
8a
=10
4cc
4b-
4g
=11
4b-
8a
8g
8f
8a
=12
2g}
4r
=13
{4f
4e
4g
=14
4.cc
8dd
8cc
8b-
=15
2a
4g
=16
2f}
==
*-
!!!minrhy: 8
!!!meters: 3/4 ]  ZZ[4
!!!cut: Seele und Leib (2-20) S. 65
!!!reg: Lothringen
!!!trd: PINCK, Louis: Verklingende Weisen, Bd 2, Metz 1928
!!!rhy1: X_  X_X_X_  X__XX  X_XXXX  X__0_
!!!rhy2: X_X_X_  X_.XXX  X__X_  X__0_
!!!key: P0893  08  F 3/4 ]  ZZ[4
!!!mod: HEPTATONIK IONISCH]  AMBITUS[7b
!!!kad: 2121
!!!akz: 3442_1531_3542_1531_
!!!fot: 'a__b__c__b__
!!!for: 'a__b__c__bv_
!!!fok: 'Md_^__^d_^__
!! PHRAS[VORWIEGEND VOLLTAKTIG]
!!!fkt: geistliche, religiöse Lieder, Tod
!! LOTH VKL
!! PR[14] 2K[5] 2G[18] 3K[0] 3G[5] 4A[0] 4Ü[0] 5A[5] 6K[5] 6G[0]
!! 7K[0] 7G[0] 8A[0] MEHR[0] SI[36] ABS[22] SR[23] SP[14]
!! ST[8] 2k[14] 2g[32] 3k[0] 3g[5] 4d[0] 4ü[0] 5d[0] 6k[0] 6g[0]
!! 7k[0] 7g[0] 8d[0] mehr[0] si[50] dm[-14] sr[45] sp[5]
!! 1F[8] 2F[92] 3F[0] 4F[0] LF[0] 2P[0] 3P[0] 4P[0] TRI[0] DF[2] AB[25]
!! TF[0] U3K[0] U3[0] U4[4] U4Ü[0] U5[4] U6K[0] U6[4] U7K[13] U7[0]
!! N1[30] N2K[0] N2[22] N3K[13] N3[0] N4[9] N4Ü[0] N5[0] N6K[0] N6[0]
!!!n7k: 0] N7[0] O1[0] O2K[0] O2[0] O3K[0] O3[0] HÖ[0
